!!!COM: Schiørring, Niels
!!!CDT: 1743-1798
!!!OPR@@DA: Choral-Bog
!!!ONM: 82
!!!OTL@@DA: D ſtore Gud! vi love dig
**kern	**fb	**kern	**kern	**kern	**kern	**kern	**kern	**kern
*part6	*part6	*part6	*part5	*part5	*part4	*part3	*part2	*part1
*staff8	*	*staff7	*staff6	*staff5	*staff4	*staff3	*staff2	*staff1
*clefF4	*	*clefC1	*clefF4	*clefC1	*clefF4	*clefC4	*clefC3	*clefC1
*mclefF4	*	*mclefG2	*mclefF4	*mclefG2	*mclefF4	*mclefGv2	*mclefG2	*mclefG2
*k[]	*	*k[]	*k[]	*k[]	*k[]	*k[]	*k[]	*k[]
*M4/4	*	*M4/4	*M4/4	*M4/4	*M4/4	*M4/4	*M4/4	*M4/4
*met(c)	*	*met(c)	*met(c)	*met(c)	*met(c)	*met(c)	*met(c)	*met(c)
*MM180	*	*MM180	*MM180	*MM180	*MM180	*MM180	*MM180	*MM180
*	*above	*	*	*	*	*	*	*
*	*	*	*^	*^	*	*	*	*
=1	=1	=1	=1	=1	=1	=1	=1	=1	=1	=1
2E	.	2e	2E	2G	2e	2B	2E	2G	2B	2e
=2	=2	=2	=2	=2	=2	=2	=2	=2	=2	=2
*	*	*	*	*	*	*^	*	*	*	*
2C	.	2g	2C	2G	2g	2ryy	2e\	2C	2G	2e	2g
*	*	*	*v	*v	*	*	*	*	*	*	*
2BB	6	2g	2BB	2g	2B	2d\	2BB	2d	2d	2g
=3	=3	=3	=3	=3	=3	=3	=3	=3	=3	=3
2AA	.	2a	2AA	2a	2c	2e\	2AA	2c	2e	2a
2F	.	2a	2F	2a	2c	2f\	2F	2c	2f	2a
=4	=4	=4	=4	=4	=4	=4	=4	=4	=4	=4
2E	6	2cc	2E	2cc	2c	2g\	2E	2c	2g	2cc
2F	.	2a	2F	2a	2c	2f\	2F	2c	2f	2a
=5	=5	=5	=5	=5	=5	=5	=5	=5	=5	=5
2AA	.	2a	2AA	2a	2c	2e\	2AA	2c	2e	2a
2A	.	2cc	2A	2cc	2e	2a\	2A	2e	2a	2cc
=6	=6	=6	=6	=6	=6	=6	=6	=6	=6	=6
2E	6	2cc	2E	2cc	2e	2g\	2E	2e	2g	2cc
2F#X	-r5	2cc	2F#X	2cc	2d	2a\	2F#X	2d	2a	2cc
=7	=7	=7	=7	=7	=7	=7	=7	=7	=7	=7
2G	.	2b	2G	2b	2d	2g\	2G	2d	2g	2b
2C	.	2cc	2C	2cc	2e	2g\	2C	2e	[2g	2cc
=8	=8	=8	=8	=8	=8	=8	=8	=8	=8	=8
*	*	*	*	*	*	*	*^	*	*	*
2D	6 4	2b	2D	2b	2.d	2g\	2D	2D	2d	2g]	2b
2DD	5 #	2a	2DD	2a	.	2f#X\	2D	2DD	(4d	2f#X	2a
.	.	.	.	.	4c	.	.	.	4c)	.	.
*	*	*	*	*	*	*	*v	*v	*	*	*
=9	=9	=9	=9	=9	=9	=9	=9	=9	=9	=9
2GG	.	2g	2GG	2g	2B	2d\	2GG	2B	2g	2g
*	*	*	*^	*	*	*	*	*	*	*
2E	-r5	2cc	2E	2B-X	2cc	2ryy	2g\	2E	2B-X	2g	2cc
*	*	*	*	*	*	*v	*v	*	*	*	*
=10	=10	=10	=10	=10	=10	=10	=10	=10	=10	=10
2F	.	2cc	2F	2A	2cc	2a	2F	2A	2a	2cc
2F#X	6 5	2cc	2F#X	[2d	2cc	2a	2F#X	[2d	2a	2cc
=11	=11	=11	=11	=11	=11	=11	=11	=11	=11	=11
2G#X	6 5	2b	2G#X	2d]	2b	1e	2G#X	2d]	2e	2b
2A	.	2a	2A	2c	2a	.	2A	2c	2e	2a
=12	=12	=12	=12	=12	=12	=12	=12	=12	=12	=12
*	*	*	*	*	*	*^	*	*	*	*
2D	6	2b	2D	2d	2b	2ryy	2f\	2D	2d	2f	2b
2C#X	6	2a	2C#X	4A	2a	4ryy	4e\	2C#X	2e	(4e	2a
*	*	*	*v	*v	*	*	*	*	*	*	*
.	5	.	.	.	4e	[4gni\	.	.	[4g)	.
=13	=13	=13	=13	=13	=13	=13	=13	=13	=13	=13
2D	4	2a	2D	2a	2d	4g\]	2D	2d	4g]	2a
.	3	.	.	.	.	4f\	.	.	4f	.
*	*	*	*^	*	*	*	*	*	*	*
2A	.	2a	2A	2cni	2a	2ryy	2e\	2A	2c	2e	2a
*	*	*	*	*	*	*v	*v	*	*	*	*
=14	=14	=14	=14	=14	=14	=14	=14	=14	=14	=14
2F	.	2a	2F	1c	2a	2.f	2F	2c	[2f	2a
[2C	4	2g	[2C	.	2g	.	[2C	2c	(4f]	2g
.	3	.	.	.	.	4e	.	.	4e)	.
=15	=15	=15	=15	=15	=15	=15	=15	=15	=15	=15
*	*	*	*	*	*	*^	*	*	*	*
2C]	#4|	2a	2C]	2A	2a	2f#X	2d\	2C]	(4A	2f#X	2a
.	.	.	.	.	.	.	.	.	4d)	.	.
2BB	6	2b	2BB	[2G	2b	2g	2d\	2BB	2d	[2g	2b
=16	=16	=16	=16	=16	=16	=16	=16	=16	=16	=16	=16
2AA	7	2cc	2AA	2G]	2cc	2e	1r	2AA	2c	2g]	2cc
2D	#	2a	2D	2F#X	2a	2d	.	2D	2d	2f#X	2a
=17	=17	=17	=17	=17	=17	=17	=17	=17	=17	=17	=17
*	*	*	*	*	*	*	*^	*	*	*	*
2GG	.	2g	2GG	2G	2g	2ryy	2d/	2B\	2GG	2B	2g	2g
*	*	*	*v	*v	*	*	*	*	*	*	*	*
*	*	*	*	*	*	*v	*v	*	*	*	*
2AA	.	2cc	2AA	2cc	2e	2a\	2AA	2A	2e	2cc
=18	=18	=18	=18	=18	=18	=18	=18	=18	=18	=18
2C	6	2cc	2C	2cc	2e	2a\	2C	2A	2e	2cc
2D	7 #	2cc	2D	2cc	[2d	2f#X\	2D	[2d	2f#X	2cc
=19	=19	=19	=19	=19	=19	=19	=19	=19	=19	=19
2E	7 #	2b	2E	2b	2d]	2g#X\	2E	2d]	2g#X	2b
2F	.	2a	2Fni	2a	2c	2a\	2F	2c	2a	2a
=20	=20	=20	=20	=20	=20	=20	=20	=20	=20	=20
2GG#X	7 5	2b	2GG#X	2b	2d	2f\	2GG#X	2d	2f	2b
2AA	8 #	2a	2AA	2a	2c#X	4e\	2AA	2c#X	(4e	2a
.	7	.	.	.	.	4gni\	.	.	4gni)	.
=21	=21	=21	=21	=21	=21	=21	=21	=21	=21	=21
2D	.	2a	2D	2a	2d	2f\	2D	2d	2f	2a
*	*	*	*^	*	*	*	*	*	*	*
[2F	8	2a	[2F	2cni	2a	4ryy	4f\	[2F	2ci	(4f	2a
.	7	.	.	.	.	4ryy	4e\	.	.	4e)	.
*	*	*	*	*	*	*v	*v	*	*	*	*
=22	=22	=22	=22	=22	=22	=22	=22	=22	=22	=22
2F]	4 3	2a	2F]	2B	2a	2d	2F]	2B	2d	2a
[2E	6	2g	[2E	2c	2g	2e	[2E	2c	2e	2g
=23	=23	=23	=23	=23	=23	=23	=23	=23	=23	=23
2E]	2	2a	2E]	2c	2a	2f	2E]	2c	2f	2a
2D	6	2b	2D	2d	2b	2f	2D	2d	2f	2b
*	*	*	*v	*v	*	*	*	*	*	*
=24	=24	=24	=24	=24	=24	=24	=24	=24	=24
*	*	*	*	*	*^	*	*	*	*
2C	.	2cc	2C	2cc	2e	2g\	2C	2e	2g	2cc
*	*	*	*^	*	*	*	*	*	*	*
2D	8 #	2a	2D	4d	2a	4ryy	2f#X\	2D	(4d	2f#X	2a
.	7	.	.	4c	.	4ryy	.	.	4c)	.	.
*	*	*	*v	*v	*	*	*	*	*	*	*
=25	=25	=25	=25	=25	=25	=25	=25	=25	=25	=25
2GG	.	2g	2GG	2g	2B	2d\	2GG	2B	2g	2g
2E	6	2cc	2E	2cc	2c	2g\	2E	2c	2g	2cc
=26	=26	=26	=26	=26	=26	=26	=26	=26	=26	=26
2F	.	2cc	2F	2cc	2c	2a\	2F	2c	2a	2cc
2C	.	2cc	2C	2cc	2e	2g\	2C	2e	2g	2cc
*	*	*	*	*	*v	*v	*	*	*	*
=27	=27	=27	=27	=27	=27	=27	=27	=27	=27
*	*	*	*^	*	*	*	*	*	*
2G	8	2b	2G	2d	2b	4g	2G	2d	(4g	2b
.	7	.	.	.	.	4f	.	.	4f)	.
2A	5	2a	2A	2c	2a	4e	2A	2c	4e	2a
.	#6\	.	.	.	.	4f#X	.	.	4f#X	.
=28	=28	=28	=28	=28	=28	=28	=28	=28	=28	=28
*	*	*	*	*	*	*^	*	*	*	*
2G	.	2b	2G	2d	2b	2ryy	2g\	2G	2d	2g	2b
*	*	*	*v	*v	*	*	*	*	*	*	*
2C#X	6 5	2a	2C#X	2a	2e	2g\	2C#X	2e	2g	2a
=29	=29	=29	=29	=29	=29	=29	=29	=29	=29	=29
2D	.	2a	2D	2a	2d	2f\	2D	2d	2f	2a
*	*	*	*^	*	*	*	*	*	*	*
2F	.	2a	2F	2cni	2a	2ryy	2f\	2F	2c	2f	2a
*	*	*	*	*	*	*v	*v	*	*	*	*
=30	=30	=30	=30	=30	=30	=30	=30	=30	=30	=30
2D#X	6 5	2a	2D#X	2B	2a	2f#X	2D#X	2B	2f#X	2a
2E	.	2g	2E	2B	2g	2e	2E	2B	2e	2g
=31	=31	=31	=31	=31	=31	=31	=31	=31	=31	=31
2E-X	2	2a	2E-X	2c	2a	2fni	2E-X	2c	2fni	2a
2Dni	6	2b	2Dni	2dni	2b	2f	2Dni	2d	2f	2b
*	*	*	*v	*v	*	*	*	*	*	*
=32	=32	=32	=32	=32	=32	=32	=32	=32	=32
*	*	*	*	*	*^	*	*	*	*
2C	.	2cc	2C	2cc	2eni	2g\	2C	2e	2g	2cc
*	*	*	*^	*	*	*	*	*	*	*
2D	#	2a	2D	2d	2a	2ryy	2f#X\	2D	2d	2f#X	2a
*	*	*	*v	*v	*	*	*	*	*	*	*
=33	=33	=33	=33	=33	=33	=33	=33	=33	=33	=33
1GG	.	1g	1GG	1g	1B	1d\	1GG	1B	1g	1g
*	*	*	*	*	*v	*v	*	*	*	*
=34	=34	=34	=34	=34	=34	=34	=34	=34	=34
*	*	*	*^	*	*	*	*	*	*
1C	.	1e	1C	1G	1e	1c	1C	1G	1c	1e
=35	=35	=35	=35	=35	=35	=35	=35	=35	=35	=35
*	*	*	*	*	*	*^	*	*	*	*
2BB	6	2g	2BB	2G	2g	2ryy	2d\	2BB	2G	2d	2g
*	*	*	*v	*v	*	*	*	*	*	*	*
2AA	.	2a	2AA	2a	2c	2e\	2AA	2c	2e	2a
=36	=36	=36	=36	=36	=36	=36	=36	=36	=36	=36
2D	6	2b	2D	2b	2d	2f\	2D	(4d	2f	2b
.	.	.	.	.	.	.	.	4B)	.	.
*	*	*	*^	*	*	*	*	*	*	*
2E	#	2b	2E	2G#X	2b	2ryy	2e\	2E	2G#X	2e	2b
*	*	*	*v	*v	*	*	*	*	*	*	*
=37	=37	=37	=37	=37	=37	=37	=37	=37	=37	=37
1AA	.	1a	1AA	1a	1c	1e\	1AA	1A	1c	1a
*	*	*	*	*	*v	*v	*	*	*	*
=38	=38	=38	=38	=38	=38	=38	=38	=38	=38
*	*	*	*^	*	*	*	*	*	*
1A	.	1e	1A	1A	1e	1c	1A	1A	1c	1e
=39	=39	=39	=39	=39	=39	=39	=39	=39	=39	=39
2E	.	2g	2E	2B	2g	2e	2E	2B	2e	2g
4F	.	2a	4F	[2A	2a	2c	(4F	[2A	2c	2a
4E	.	.	4E	.	.	.	4E)	.	.	.
=40	=40	=40	=40	=40	=40	=40	=40	=40	=40	=40
2D	6 5	2b	2D	2A]	2b	2f	2D	2A]	2f	2b
2E	#	2b	2E	2G#X	2b	2e	2E	2G#X	2e	2b
=41	=41	=41	=41	=41	=41	=41	=41	=41	=41	=41
*	*	*	*	*	*	*^	*	*	*	*
1AA	.	1a	1AA	1A	1a	1e	1c\	1AA	1A	1c	1a
*	*	*	*v	*v	*	*	*	*	*	*	*
=42	=42	=42	=42	=42	=42	=42	=42	=42	=42	=42
1E	n	1b	1E	1b	1e	1g\	1E	1G	1e	1b
=43	=43	=43	=43	=43	=43	=43	=43	=43	=43	=43
2D#X	6 5	2b	2D#X	2b	2f	2a\	2D#X	2A	2f#X	2b
2E	.	2b	2E	2b	2e	2g\	2E	2G	2g	2b
=44	=44	=44	=44	=44	=44	=44	=44	=44	=44	=44
2BB	6	2ddni	2BB	2ddni	2dni	2g\	2BB	2d	2g	2dd
2C#X	6 5	2a	2C#X	2a	2e	[2g\	2C#X	2e	[2g	2a
=45	=45	=45	=45	=45	=45	=45	=45	=45	=45	=45
2D	4	2a	2D	2a	2d	4g\]	2D	2d	(4g]	2a
.	3	.	.	.	.	4f\	.	.	4f)	.
2E	.	2g	2E	2g	2B	2e\	2E	2B	2e	2g
=46	=46	=46	=46	=46	=46	=46	=46	=46	=46	=46
2C	6	2a	2C	2a	2c	4e\	2C	(4c	(4e	2a
.	#4|	.	.	.	.	4f#X\	.	4d)	4f#X)	.
2BB	6	2b	2BB	2b	2d	[2g\	2BB	2d	[2g	2b
=47	=47	=47	=47	=47	=47	=47	=47	=47	=47	=47
2AA	7	2cc	2AA	2cc	2c	2g\]	2AA	2c	2g]	2cc
2D	8 #	2a	2D	2a	4d	2f#X\	2D	(4d	2f#X	2a
.	7	.	.	.	4c	.	.	4c)	.	.
=48	=48	=48	=48	=48	=48	=48	=48	=48	=48	=48
2GG	.	2g	2GG	2g	2B	2d\	2GG	2B	2g	2g
2E	6	2cc	2E	2cc	2c	2g\	2E	2c	2g	2cc
=49	=49	=49	=49	=49	=49	=49	=49	=49	=49	=49
2D	7	2cc	2D	2cc	2d	2f\	2D	2d	2f	2cc
2C	.	2cc	2C	2cc	2e	2g\	2C	2e	2g	2cc
=50	=50	=50	=50	=50	=50	=50	=50	=50	=50	=50
2GG#X	7 5	2b	2GG#X	2b	2d	2f\	2GG#X	2d	2f	2b
2AA	.	2a	2AA	2a	2c	2e\	2AA	2c	2e	2a
=51	=51	=51	=51	=51	=51	=51	=51	=51	=51	=51
4D	6	2b	4D	2b	4d	4f\	(4D	(4d	(4f	2b
4E	n	.	4E	.	4B	4gni\	4E)	4B)	4g)	.
4C#X	6 5	2a	4C#X	2a	[2e	[2g\	(4C#X	[2e	[2g	2a
4AA	.	.	4AA	.	.	.	4AA)	.	.	.
=52	=52	=52	=52	=52	=52	=52	=52	=52	=52	=52
2D	9 4	2a	2D	2a	4e]	4g\]	2D	(4e]	(4g]	2a
.	8 3	.	.	.	4d	4f\	.	4d)	4f)	.
2F	.	2a	2F	2a	2cni	2f\	2F	2c	2f	2a
=53	=53	=53	=53	=53	=53	=53	=53	=53	=53	=53
1D	6 5	2a	1D	2a	1B	2f\	2D	2B	2f	2a
.	4 2	2g	.	2g	.	2e\	2D	2B	2e	2g
=54	=54	=54	=54	=54	=54	=54	=54	=54	=54	=54
2C	6	2a	2C	2a	4c	4e\	2C	(4c	(4e	2a
.	#4|	.	.	.	4d	4f#X\	.	4d)	4f#X)	.
2BB	6	2b	2BB	2b	2d	2g\	2BB	2d	2g	2b
=55	=55	=55	=55	=55	=55	=55	=55	=55	=55	=55
4E	6	2cc	4E	2cc	2c	2.g\	(4E	2c	[2g	2cc
4D	.	.	4D	.	.	.	4D)	.	.	.
4C	6 5	2a	4C	2a	4e	.	(4C	(4e	(4g]	2a
4D	#	.	4D	.	4d	4f#X\	4D)	4d)	4f#X)	.
=56	=56	=56	=56	=56	=56	=56	=56	=56	=56	=56
2GG	.	2g	2GG	2g	2B	2d\	2GG	2B	2g	2g
2A	.	2cc	2A	2cc	2e	2a\	2A	2A	2e	2cc
=57	=57	=57	=57	=57	=57	=57	=57	=57	=57	=57
2G	2	2cc	2G	2cc	2e	2a\	2G	2A	2e	2cc
2F#X	6 #5|	2cc	2F#X	2cc	2d#X	2a\	2F#X	2A	2d#X	2cc
=58	=58	=58	=58	=58	=58	=58	=58	=58	=58	=58
2G#X	-r5	2b	2G#X	2b	2dni	2e\	2G#X	(4B	2dni	2b
.	.	.	.	.	.	.	.	4e)	.	.
2A	.	2a	2A	2a	2c	2e\	2A	2e	2c	2a
=59	=59	=59	=59	=59	=59	=59	=59	=59	=59	=59
4D	6	2b	4D	2b	2d	2f\	(4D	2d	2f	2b
4E	.	.	4E	.	.	.	4E)	.	.	.
2F	6	2a	2F	2a	2d	2f\	2F	2d	2f	2a
=60	=60	=60	=60	=60	=60	=60	=60	=60	=60	=60
2AA	#	2a	2AA	2a	2c#X	2e\	2AA	2c#X	2e	2a
2C#X	-r5	2a	2C#X	2a	2e	2g\	2C#X	2e	2g	2a
=61	=61	=61	=61	=61	=61	=61	=61	=61	=61	=61
2D	.	2a	2D	2a	2.d	2f\	2D	[2d	2f	2a
2E	7	2g	2E	2g	.	2g\	2E	(4d]	2g	2g
.	6	.	.	.	4cni	.	.	4ci)	.	.
*	*	*	*	*	*v	*v	*	*	*	*
=62	=62	=62	=62	=62	=62	=62	=62	=62	=62
*	*	*	*^	*	*	*	*	*	*
4F	6	2a	4F	2A	2a	4c	(4F	2A	(4c	2a
4F#X	.	.	4F#X	.	.	2d	4F#X)	.	4d)	.
4G	6	2b	4G	4d	2b	.	(4G	(4d	(4d	2b
4G#X	.	.	4G#X	4B	.	4e	4G#X)	4B)	4e)	.
=63	=63	=63	=63	=63	=63	=63	=63	=63	=63	=63
2A	.	2cc	2A	2A	2cc	2e	2A	(4A	2e	2cc
.	.	.	.	.	.	.	.	4G)	.	.
2D	#	2a	2D	4F#X	2a	2d	2D	(4F#X	2d	2a
.	.	.	.	4c	.	.	.	4c)	.	.
*	*	*	*v	*v	*	*	*	*	*	*
=64	=64	=64	=64	=64	=64	=64	=64	=64	=64
*	*	*	*	*	*^	*	*	*	*
2GG	.	2g	2GG	2g	2B	2d\	2GG	2B	2d	2g
*	*	*	*^	*	*	*	*	*	*	*
2F#X	#6\ 5	2cc	2F#X	2A	2cc	2ryy	2d#X\	2F#X	2A	2d#X	2cc
*	*	*	*	*	*	*v	*v	*	*	*	*
=65	=65	=65	=65	=65	=65	=65	=65	=65	=65	=65
2E	6 4	2cc	2E	2A	2cc	2e	2E	2A	2e	2cc
2D#X	7 5	2cc	2D#X	2A	2cc	2f#X	2D#X	2A	2f#X	2cc
=66	=66	=66	=66	=66	=66	=66	=66	=66	=66	=66
2Dni	#4|	2b	2Dni	2G#X	2b	1e	2Dni	2G#X	2e	2b
2C	6	2a	2C	2A	2a	.	2C	2A	2e	2a
*	*	*	*v	*v	*	*	*	*	*	*
=67	=67	=67	=67	=67	=67	=67	=67	=67	=67
*	*	*	*	*	*^	*	*	*	*
2GG#X	7 5	2b	2GG#X	2b	2d	2f\	2GG#X	2d	2f	2b
2AA	8 #	2a	2AA	2a	2c#X	4e\	2AA	2c#X	(4e	2a
.	7	.	.	.	.	4gni\	.	.	4g)	.
=68	=68	=68	=68	=68	=68	=68	=68	=68	=68	=68
2D	.	2a	2D	2a	2d	2f\	2D	2d	2f	2a
2A	#	2a	2A	2a	2c#X	2e\	2A	2c#X	2e	2a
=69	=69	=69	=69	=69	=69	=69	=69	=69	=69	=69
2F	6	2a	2F	2a	2.d	2f\	2F	[2d	2f	2a
2E	7	2g	2E	2g	.	2g\	2E	(4d]	2g	2g
.	nr6	.	.	.	4cni	.	.	4ci)	.	.
=70	=70	=70	=70	=70	=70	=70	=70	=70	=70	=70
2E-X	#2|	2a	2E-X	2a	2c	2f#X\	2E-X	2c	2f#X	2a
2D	6 4	2b	2D	2b	2d	2g\	2D	2d	2g	2b
=71	=71	=71	=71	=71	=71	=71	=71	=71	=71	=71
2C	n	2cc	2C	2cc	2eni	2g\	2C	2e	2g	2cc
*	*	*	*^	*	*	*	*	*	*	*
2D	#	2a	2D	4d	2a	4ryy	2f#X\	2D	(4d	2f#X	2a
.	.	.	.	4c	.	4ryy	.	.	4c)	.	.
*	*	*	*v	*v	*	*	*	*	*	*	*
=72	=72	=72	=72	=72	=72	=72	=72	=72	=72	=72
2GG	.	2g	2GG	2g	2B	2d\	2GG	2B	2g	2g
*	*	*	*^	*	*	*	*	*	*	*
2E	-r5	2cc	2E	2B-X	2cc	2ryy	2g\	2E	2B-X	2g	2cc
*	*	*	*	*	*	*v	*v	*	*	*	*
=73	=73	=73	=73	=73	=73	=73	=73	=73	=73	=73
2F	.	2cc	2F	2A	2cc	2f	2F	2A	2f	2cc
2F#X	6 5	2cc	2F#X	2A	2cc	2d	2F#X	2A	2d	2cc
=74	=74	=74	=74	=74	=74	=74	=74	=74	=74	=74
2G	8	2b	2G	4B	2b	4d	2G	(4B	(4d	2b
.	n7	.	.	2d	.	2fni	.	4d)	4f)	.
2A	6 4	2a	2A	.	2a	.	2A	(4d	(4f	2a
.	5 3	.	.	4c	.	4e	.	4c)	4e)	.
=75	=75	=75	=75	=75	=75	=75	=75	=75	=75	=75
*	*	*	*	*	*	*^	*	*	*	*
2D	6	2b	2D	2d	2b	2ryy	2f\	2D	2d	2f	2b
2C#X	6	2a	2C#X	4A	2a	4ryy	4e\	2C#X	2e	(4e	2a
*	*	*	*v	*v	*	*	*	*	*	*	*
.	5	.	.	.	4e	4g\	.	.	[4g)	.
=76	=76	=76	=76	=76	=76	=76	=76	=76	=76	=76
2D	4	2a	2D	2a	2d	4g\	2D	2d	(4g]	2a
.	3	.	.	.	.	4f\	.	.	4f)	.
2F	.	2a	2F	2a	2cni	2f\	2F	2c	2f	2a
=77	=77	=77	=77	=77	=77	=77	=77	=77	=77	=77
2BB	7 5	2a	2BB	2a	2d	2f\	2BB	2d	2f	2a
[2C	.	2g	[2C	2g	2e	2e/	[2C	2e	2e	2g
=78	=78	=78	=78	=78	=78	=78	=78	=78	=78	=78
2C]	#4|	2a	2C]	2a	2d	2f#X\	2C]	2d	2f#X	2a
2BB	6	2b	2BB	2b	2d	[2g\	2BB	2d	[2g	2b
=79	=79	=79	=79	=79	=79	=79	=79	=79	=79	=79
2AA	7	2cc	2AA	2cc	2c	2g\]	2AA	2c	2g]	2cc
*	*	*	*^	*	*	*	*	*	*	*
2D	8 #	2a	2D	4d	2a	4ryy	2f#X\	2D	(4d	2f#X	2a
.	7	.	.	4c	.	4ryy	.	.	4c)	.	.
*	*	*	*v	*v	*	*	*	*	*	*	*
=80	=80	=80	=80	=80	=80	=80	=80	=80	=80	=80
2GG	.	2g	2GG	2g	2B	2d\	2GG	2B	2g	2g
*	*	*	*^	*	*	*	*	*	*	*
2E	-r5	2cc	2E	2B-X	2cc	2ryy	2g\	2E	2B-X	2g	2cc
*	*	*	*	*	*	*v	*v	*	*	*	*
=81	=81	=81	=81	=81	=81	=81	=81	=81	=81	=81
2F	.	2cc	2F	2A	2cc	2f	2F	2A	2f	2cc
2F#X	6 5	2cc	2F#X	2A	2cc	2d	2F#X	2A	2d	2cc
=82	=82	=82	=82	=82	=82	=82	=82	=82	=82	=82
2G	8	2b	2G	4B	2b	4d	2G	(4B	(4d	2b
.	n7	.	.	2d	.	2fni	.	4d)	4f)	.
2A	6 4	2a	2A	.	2a	.	2A	(4d	(4f	2a
.	5 3	.	.	4c	.	4e	.	4c)	4e)	.
=83	=83	=83	=83	=83	=83	=83	=83	=83	=83	=83
*	*	*	*	*	*	*^	*	*	*	*
2D	6	2b	2D	2d	2b	2ryy	2f\	2D	2d	2f	2b
2C#X	6	2a	2C#X	4A	2a	4ryy	4e\	2C#X	2e	(4e	2a
*	*	*	*v	*v	*	*	*	*	*	*	*
.	5	.	.	.	4e	[4g\	.	.	[4g)	.
=84	=84	=84	=84	=84	=84	=84	=84	=84	=84	=84
2D	4	2a	2D	2a	2d	4g\]	2D	2d	(4g]	2a
.	3	.	.	.	.	4f\	.	.	4f)	.
2F	.	2a	2F	2a	2cni	2f\	2F	2c	2f	2a
=85	=85	=85	=85	=85	=85	=85	=85	=85	=85	=85
2BB	7 5	2a	2BB	2a	2d	2f\	2BB	2d	2f	2a
[2C	.	2g	[2C	2g	2e	2e/	[2C	2e	2e	2g
=86	=86	=86	=86	=86	=86	=86	=86	=86	=86	=86
2C]	#4|	2a	2C]	2a	2d	2f#X\	2C]	2d	2f#X	2a
2BB	6	2b	2BB	2b	2d	[2g\	2BB	2d	[2g	2b
=87	=87	=87	=87	=87	=87	=87	=87	=87	=87	=87
2AA	7	2cc	2AA	2cc	2c	2g\]	2AA	2c	2g]	2cc
*	*	*	*^	*	*	*	*	*	*	*
2D	8 #	2a	2D	4d	2a	4ryy	2f#X\	2D	(4d	2f#X	2a
.	7	.	.	4c	.	4ryy	.	.	4c)	.	.
*	*	*	*v	*v	*	*	*	*	*	*	*
=88	=88	=88	=88	=88	=88	=88	=88	=88	=88	=88
2GG	.	2g	2GG	2g	2B	2d\	2GG	2B	2g	2g
*	*	*	*^	*	*	*	*	*	*	*
2E	-r5	2cc	2E	2B-X	2cc	2ryy	2g\	2E	2B-X	2g	2cc
*	*	*	*	*	*	*v	*v	*	*	*	*
=89	=89	=89	=89	=89	=89	=89	=89	=89	=89	=89
2F	.	2cc	2F	2A	2cc	2f	2F	2A	2f	2cc
2F#X	6 5	2cc	2F#X	2A	2cc	2d	2F#X	2A	2d	2cc
=90	=90	=90	=90	=90	=90	=90	=90	=90	=90	=90
2G	8	2b	2G	4B	2b	4d	2G	(4B	(4d	2b
.	n7	.	.	2d	.	2fni	.	4d)	4f)	.
2A	6 4	2a	2A	.	2a	.	2A	(4d	(4f	2a
.	5 3	.	.	4c	.	4e	.	4c)	4e)	.
=91	=91	=91	=91	=91	=91	=91	=91	=91	=91	=91
*	*	*	*	*	*	*^	*	*	*	*
2D	6	2b	2D	2d	2b	2ryy	2f\	2D	2d	2f	2b
2C#X	6	2a	2C#X	4A	2a	4ryy	4e\	2C#X	2e	(4e	2a
*	*	*	*v	*v	*	*	*	*	*	*	*
.	5	.	.	.	4e	[4g\	.	.	[4g)	.
=92	=92	=92	=92	=92	=92	=92	=92	=92	=92	=92
2D	4	2a	2D	2a	2d	4g\]	2D	2d	(4g]	2a
.	3	.	.	.	.	4f\	.	.	4f)	.
2F	.	2a	2F	2a	2cni	2f\	2F	2c	2f	2a
=93	=93	=93	=93	=93	=93	=93	=93	=93	=93	=93
2BB	7 5	2a	2BB	2a	2d	2f\	2BB	2d	2f	2a
[2C	.	2g	[2C	2g	2e	2e/	[2C	2e	2e	2g
=94	=94	=94	=94	=94	=94	=94	=94	=94	=94	=94
2C]	#4|	2a	2C]	2a	2d	2f#X\	2C]	2d	2f#X	2a
2BB	6	2b	2BB	2b	2d	[2g\	2BB	2d	[2g	2b
=95	=95	=95	=95	=95	=95	=95	=95	=95	=95	=95
2AA	7	2cc	2AA	2cc	2c	2g\]	2AA	2c	2g]	2cc
*	*	*	*^	*	*	*	*	*	*	*
2D	8 #	2a	2D	4d	2a	4ryy	2f#X\	2D	(4d	2f#X	2a
.	7	.	.	4c	.	4ryy	.	.	4c)	.	.
*	*	*	*v	*v	*	*	*	*	*	*	*
=96	=96	=96	=96	=96	=96	=96	=96	=96	=96	=96
2GG	.	2g	2GG	2g	2B	2d\	2GG	2B	2g	2g
*	*	*	*	*	*	*^	*	*	*	*
[2G	#4|	2a	[2G	2a	2A	2e\	2c#X\	[2G	2c#X	2e	2a
=97	=97	=97	=97	=97	=97	=97	=97	=97	=97	=97	=97
2G]	5 2	2a	2G]	2a	2A	2d/	2d\	2G]	2d	2d	2a
*	*	*	*	*	*	*v	*v	*	*	*	*
[2F	6	2a	[2F	2a	2A	2d\	[2F	2A	2d	2a
=98	=98	=98	=98	=98	=98	=98	=98	=98	=98	=98
2F]	2	2g	2F]	2g	2B	2d\	2F]	2B	2d	2g
2E	.	2b	2E	2b	2e	2g\	2E	2e	2g	2b
=99	=99	=99	=99	=99	=99	=99	=99	=99	=99	=99
2C	.	2cc	2C	2cc	2e	2g\	2C	2e	2g	2cc
2C#X	-r5	2a	2C#X	2a	2e	2g\	2C#X	2e	2g	2a
=100	=100	=100	=100	=100	=100	=100	=100	=100	=100	=100
2D	.	2a	2D	2a	2d	2f\	2D	2d	2f	2a
2F	.	2a	2F	2a	2cni	2f\	2F	2c	2f	2a
=101	=101	=101	=101	=101	=101	=101	=101	=101	=101	=101
2D#X	7 5	2a	2D#X	2a	2c	2f#X\	2D#X	2c	2f#X	2a
2E	.	2g	2E	2g	2B	2e\	2E	2B	2g	2g
=102	=102	=102	=102	=102	=102	=102	=102	=102	=102	=102
2C	6	2a	2C	2a	2c	2e\	2C	2c	2e	2a
2AA	.	2cc	2AA	2cc	2c	2e\	2AA	2c	2e	2cc
=103	=103	=103	=103	=103	=103	=103	=103	=103	=103	=103
2BB	6	2g	2BB	2g	2d	2d/	2BB	2d	2d	2g
2GG	.	2g	2GG	2g	2B	2d\	2GG	2B	2d	2g
=104	=104	=104	=104	=104	=104	=104	=104	=104	=104	=104
*	*	*	*^	*	*	*	*	*	*	*
2C	.	2e	2C	2G	2e	2ryy	2c\	2C	2G	2c	2e
*	*	*	*v	*v	*	*	*^	*	*	*	*
[2G	#4|	2a	[2G	2a	2A	2e\	2c#X\	[2G	2c#X	2e	2a
=105	=105	=105	=105	=105	=105	=105	=105	=105	=105	=105	=105
2G]	5 2	2a	2G]	2a	2A	2d/	2d\	2G]	2d	2d	2a
*	*	*	*	*	*	*v	*v	*	*	*	*
[2F	6	2a	[2F	2a	2A	2d\	[2F	2A	2d	2a
=106	=106	=106	=106	=106	=106	=106	=106	=106	=106	=106
2F]	2	2g	2F]	2g	2B	2d\	2F]	2B	2d	2g
2E	.	2b	2E	2b	2e	2g\	2E	2e	2g	2b
=107	=107	=107	=107	=107	=107	=107	=107	=107	=107	=107
2C	.	2cc	2C	2cc	2e	2g\	2C	2e	2g	2cc
2C#X	-r5	2a	2C#X	2a	2e	2g\	2C#X	2e	2g	2a
=108	=108	=108	=108	=108	=108	=108	=108	=108	=108	=108
2D	.	2a	2D	2a	2d	2f\	2D	2d	2f	2a
2F	.	2a	2F	2a	2cni	2f\	2F	2c	2f	2a
=109	=109	=109	=109	=109	=109	=109	=109	=109	=109	=109
2D#X	7 5	2a	2D#X	2a	2c	2f#X\	2D#X	2c	2f#X	2a
2E	.	2g	2E	2g	2B	2e\	2E	2B	2g	2g
=110	=110	=110	=110	=110	=110	=110	=110	=110	=110	=110
2C	6	2a	2C	2a	2c	2e\	2C	2c	2e	2a
2AA	.	2cc	2AA	2cc	2c	2e\	2AA	2c	2e	2cc
=111	=111	=111	=111	=111	=111	=111	=111	=111	=111	=111
2BB	6	2g	2BB	2g	2d	2d/	2BB	2d	2d	2g
2GG	.	2g	2GG	2g	2B	2d\	2GG	2B	2d	2g
=112	=112	=112	=112	=112	=112	=112	=112	=112	=112	=112
*	*	*	*^	*	*	*	*	*	*	*
2C	.	2e	2C	2G	2e	2ryy	2c\	2C	2G	2c	2e
*	*	*	*v	*v	*	*	*^	*	*	*	*
[2G	#4|	2a	[2G	2a	2A	2e\	2c#X\	[2G	2c#X	2e	2a
=113	=113	=113	=113	=113	=113	=113	=113	=113	=113	=113	=113
2G]	5 2	2a	2G]	2a	2A	2d/	2d\	2G]	2d	2d	2a
*	*	*	*	*	*	*v	*v	*	*	*	*
[2F	6	2a	[2F	2a	2A	2d\	[2F	2A	2d	2a
=114	=114	=114	=114	=114	=114	=114	=114	=114	=114	=114
2F]	2	2g	2F]	2g	2B	2d\	2F]	2B	2d	2g
2E	.	2b	2E	2b	2e	2g\	2E	2e	2g	2b
=115	=115	=115	=115	=115	=115	=115	=115	=115	=115	=115
2C	.	2cc	2C	2cc	2e	2g\	2C	2e	2g	2cc
2C#X	-r5	2a	2C#X	2a	2e	2g\	2C#X	2e	2g	2a
=116	=116	=116	=116	=116	=116	=116	=116	=116	=116	=116
2D	.	2a	2D	2a	2d	2f\	2D	2d	2f	2a
2F	.	2a	2F	2a	2cni	2f\	2F	2c	2f	2a
=117	=117	=117	=117	=117	=117	=117	=117	=117	=117	=117
2D#X	7 5	2a	2D#X	2a	2c	2f#X\	2D#X	2c	2f#X	2a
2E	.	2g	2E	2g	2B	2e\	2E	2B	2g	2g
=118	=118	=118	=118	=118	=118	=118	=118	=118	=118	=118
2C	6	2a	2C	2a	2c	2e\	2C	2c	2e	2a
2AA	.	2cc	2AA	2cc	2c	2e\	2AA	2c	2e	2cc
=119	=119	=119	=119	=119	=119	=119	=119	=119	=119	=119
2BB	6	2g	2BB	2g	2d	2d/	2BB	2d	2d	2g
2GG	.	2g	2GG	2g	2B	2d\	2GG	2B	2d	2g
=120	=120	=120	=120	=120	=120	=120	=120	=120	=120	=120
*	*	*	*^	*	*	*	*	*	*	*
2C	.	2e	2C	2G	2e	2ryy	2c\	2C	2G	2c	2e
*	*	*	*v	*v	*	*	*^	*	*	*	*
[2G	#4|	2a	[2G	2a	2A	2e\	2c#X\	[2G	2c#X	2e	2a
=121	=121	=121	=121	=121	=121	=121	=121	=121	=121	=121	=121
2G]	5 2	2a	2G]	2a	2A	2d/	2d\	2G]	2d	2d	2a
*	*	*	*	*	*	*v	*v	*	*	*	*
[2F	6	2a	[2F	2a	2A	2d\	[2F	2A	2d	2a
=122	=122	=122	=122	=122	=122	=122	=122	=122	=122	=122
2F]	2	2g	2F]	2g	2B	2d\	2F]	2B	2d	2g
2E	.	2b	2E	2b	2e	2g\	2E	2e	2g	2b
=123	=123	=123	=123	=123	=123	=123	=123	=123	=123	=123
2C	.	2cc	2C	2cc	2e	2g\	2C	2e	2g	2cc
2C#X	-r5	2a	2C#X	2a	2e	2g\	2C#X	2e	2g	2a
=124	=124	=124	=124	=124	=124	=124	=124	=124	=124	=124
2D	.	2a	2D	2a	2d	2f\	2D	2d	2f	2a
2F	.	2a	2F	2a	2cni	2f\	2F	2c	2f	2a
=125	=125	=125	=125	=125	=125	=125	=125	=125	=125	=125
2D#X	7 5	2a	2D#X	2a	2c	2f#X\	2D#X	2c	2f#X	2a
2E	.	2g	2E	2g	2B	2e\	2E	2B	2g	2g
=126	=126	=126	=126	=126	=126	=126	=126	=126	=126	=126
2C	6	2a	2C	2a	2c	2e\	2C	2c	2e	2a
2AA	.	2cc	2AA	2cc	2c	2e\	2AA	2c	2e	2cc
=127	=127	=127	=127	=127	=127	=127	=127	=127	=127	=127
2BB	6	2g	2BB	2g	2d	2d/	2BB	2d	2d	2g
2GG	.	2g	2GG	2g	2B	2d\	2GG	2B	2d	2g
=128	=128	=128	=128	=128	=128	=128	=128	=128	=128	=128
*	*	*	*^	*	*	*	*	*	*	*
2C	.	2e	2C	2G	2e	2ryy	2c\	2C	2G	2c	2e
*	*	*	*v	*v	*	*	*^	*	*	*	*
[2G	#4|	2a	[2G	2a	2A	2e\	2c#X\	[2G	2c#X	2e	2a
=129	=129	=129	=129	=129	=129	=129	=129	=129	=129	=129	=129
2G]	5 2	2a	2G]	2a	2A	2d/	2d\	2G]	2d	2d	2a
*	*	*	*	*	*	*v	*v	*	*	*	*
[2F	6	2a	[2F	2a	2A	2d\	[2F	2A	2d	2a
=130	=130	=130	=130	=130	=130	=130	=130	=130	=130	=130
2F]	2	2g	2F]	2g	2B	2d\	2F]	2B	2d	2g
2E	.	2b	2E	2b	2e	2g\	2E	2e	2g	2b
=131	=131	=131	=131	=131	=131	=131	=131	=131	=131	=131
2C	.	2cc	2C	2cc	2e	2g\	2C	2e	2g	2cc
2C#X	-r5	2a	2C#X	2a	2e	2g\	2C#X	2e	2g	2a
=132	=132	=132	=132	=132	=132	=132	=132	=132	=132	=132
2D	.	2a	2D	2a	2d	2f\	2D	2d	2f	2a
2F	.	2a	2F	2a	2cni	2f\	2F	2c	2f	2a
=133	=133	=133	=133	=133	=133	=133	=133	=133	=133	=133
2D#X	7 5	2a	2D#X	2a	2c	2f#X\	2D#X	2c	2f#X	2a
2E	.	2g	2E	2g	2B	2e\	2E	2B	2g	2g
=134	=134	=134	=134	=134	=134	=134	=134	=134	=134	=134
2C	6	2a	2C	2a	2c	2e\	2C	2c	2e	2a
2AA	.	2cc	2AA	2cc	2c	2e\	2AA	2c	2e	2cc
=135	=135	=135	=135	=135	=135	=135	=135	=135	=135	=135
2BB	6	2g	2BB	2g	2d	2d/	2BB	2d	2d	2g
2GG	.	2g	2GG	2g	2B	2d\	2GG	2B	2d	2g
=136	=136	=136	=136	=136	=136	=136	=136	=136	=136	=136
*	*	*	*^	*	*	*	*	*	*	*
2C	.	2e	2C	2G	2e	2ryy	2c\	2C	2G	2c	2e
*	*	*	*v	*v	*	*	*^	*	*	*	*
[2G	#4|	2a	[2G	2a	2A	2e\	2c#X\	[2G	2c#X	2e	2a
=137	=137	=137	=137	=137	=137	=137	=137	=137	=137	=137	=137
2G]	5 2	2a	2G]	2a	2A	2d/	2d\	2G]	2d	2d	2a
*	*	*	*	*	*	*v	*v	*	*	*	*
[2F	6	2a	[2F	2a	2A	2d\	[2F	2A	2d	2a
=138	=138	=138	=138	=138	=138	=138	=138	=138	=138	=138
2F]	.	2g	2F]	2g	2B	2d\	2F]	2B	2d	2g
2E	.	2b	2E	2b	2e	2g\	2E	2e	2g	2b
=139	=139	=139	=139	=139	=139	=139	=139	=139	=139	=139
2C	.	2cc	2C	2cc	2e	2g\	2C	2e	2g	2cc
2C#X	-r5	2a	2C#X	2a	2e	2g\	2C#X	2e	2g	2a
=140	=140	=140	=140	=140	=140	=140	=140	=140	=140	=140
2D	.	2a	2D	2a	2d	2f\	2D	2d	2f	2a
2F	.	2a	2F	2a	2cni	2f\	2F	2c	2f	2a
=141	=141	=141	=141	=141	=141	=141	=141	=141	=141	=141
2D#X	7 5	2a	2D#X	2a	2c	2f#X\	2D#X	2c	2f#X	2a
2E	.	2g	2E	2g	2B	2e\	2E	2B	2g	2g
=142	=142	=142	=142	=142	=142	=142	=142	=142	=142	=142
2C	6	2a	2C	2a	2c	2e\	2C	2c	2e	2a
2AA	.	2cc	2AA	2cc	2c	2e\	2AA	2c	2e	2cc
=143	=143	=143	=143	=143	=143	=143	=143	=143	=143	=143
2BB	6	2g	2BB	2g	2d	2d/	2BB	2d	2d	2g
2GG	.	2g	2GG	2g	2B	2d\	2GG	2B	2d	2g
=144	=144	=144	=144	=144	=144	=144	=144	=144	=144	=144
*	*	*	*^	*	*	*	*	*	*	*
2C	.	2e	2C	2G	2e	2ryy	2c\	2C	2G	2c	2e
*	*	*	*v	*v	*	*	*	*^	*	*	*
2FF	.	2f	2FF	2f	2A	2c\	2F	2FF	2A	2c	2f
=145	=145	=145	=145	=145	=145	=145	=145	=145	=145	=145	=145
*	*	*	*^	*	*	*	*	*	*	*	*
2GG	.	2d	2GG	2G	2d	4ryy	2B\	4G	2GG	2G	2B	2d
.	.	.	.	.	.	4ryy	.	4GG	.	.	.	.
*	*	*	*v	*v	*	*	*	*	*	*	*	*
4AA	6	2f	4AA	2f	4c	4c/	4AA	4AA	(4c	(4c	2f
*	*	*	*^	*	*	*	*	*	*	*	*
4BB	5	.	4BB	4G	.	4ryy	4d\	4BB	4BB	4G)	4d)	.
*	*	*	*	*	*	*v	*v	*	*	*	*	*
=146	=146	=146	=146	=146	=146	=146	=146	=146	=146	=146	=146
2.C	.	2e	2.C	2G	2e	2c	2.C	2.C	2G	2c	2e
.	#4|	2d	.	4F#X	2d	4A	.	.	(4F#X	(4A	2d
*	*	*	*	*	*	*	*v	*v	*	*	*
[4BB	6	.	[4BB	4G	.	4B	[4BB	4G)	4B)	.
=147	=147	=147	=147	=147	=147	=147	=147	=147	=147	=147
4BB]	2	2e	4BB]	4G	2e	2c	4BB]	(4G	2c	2e
4AA	.	.	4AA	2.A	.	.	4AA	4A)	.	.
2D	#	2f#X	2D	.	2f#X	2d	2D	2A	2d	2f#X
*	*	*	*v	*v	*	*	*	*	*	*
=148	=148	=148	=148	=148	=148	=148	=148	=148	=148
*	*	*	*	*	*^	*	*	*	*
2GG	.	2g	2GG	2g	2B	2d\	2GG	2B	2d	2g
2Fni	2	2g	2Fni	2g	2B	2d\	2F	2B	2d	2g
=149	=149	=149	=149	=149	=149	=149	=149	=149	=149	=149
2E	6	2g	2E	2g	2c	2e\	2E	2c	2e	2g
2D	-r6 4 2	2g	2D	2g	2B-X	2e\	2D	2B-X	2e	2g
=150	=150	=150	=150	=150	=150	=150	=150	=150	=150	=150
2C#X	6	2a	2C#X	2a	2A	2e\	2C#X	2A	2e	2a
2D	.	2f	2D	2f	2A	2d\	2D	2A	2d	2f
=151	=151	=151	=151	=151	=151	=151	=151	=151	=151	=151
2GG	-	2g	2GG	2g	2B-X	2d\	2GG	2B-X	2d	2g
2GG#X	7 5	2f	2GG#X	2f	2Bn	2d\	2GG#X	2B	2d	2f
=152	=152	=152	=152	=152	=152	=152	=152	=152	=152	=152
2AA	#	2e	2AA	2e	2A	2c#X\	2AA	2A	2c#X	2e
*	*	*	*^	*	*	*	*^	*	*	*
4AA	n	2c	4AA	2E	2cn	4ryy	2A\	4A	4AA	2E	2A	2c
4GGni	.	.	4GGni	.	.	4ryy	.	4Gni	4GGni	.	.	.
*	*	*	*v	*v	*	*	*	*	*	*	*	*
=153	=153	=153	=153	=153	=153	=153	=153	=153	=153	=153	=153
4FF	6	2d	4FF	2d	2F	2A\	4F	4FF	2F	2A	2d
4EE	.	.	4EE	.	.	.	4E	4EE	.	.	.
4DD	.	2f	4DD	2f	4F	4A\	4D	4DD	(4F	(4A	2f
4GG	7	.	4GG	.	4G	4B\	4G	4GG	4G)	4B)	.
=154	=154	=154	=154	=154	=154	=154	=154	=154	=154	=154	=154
2C	.	2e	2C	2e	2G	2c\	2C	2C	2G	2c	2e
2GG	.	2d	2GG	2d	2G	2B\	2G	2GG	2G	2B	2d
=155	=155	=155	=155	=155	=155	=155	=155	=155	=155	=155	=155
2FF	.	2f	2FF	2f	2A	2c\	2F	2FF	2A	2c	2f
*	*	*	*^	*	*	*	*	*	*	*	*
2GG	.	2d	2GG	4G	2d	4ryy	2B\	2G	2GG	2G	2B	2d
.	.	.	.	4F	.	4ryy	.	.	.	.	.	.
*	*	*	*	*	*	*v	*v	*	*	*	*	*
=156	=156	=156	=156	=156	=156	=156	=156	=156	=156	=156	=156
2C	.	2c	2C	2E	2c	2G	2C	2C	2E	2c	2c
*	*	*	*	*	*	*	*v	*v	*	*	*
2C#X	6	2e	2C#X	2A	2e	2A	2C#X	2A	2A	2e
=157	=157	=157	=157	=157	=157	=157	=157	=157	=157	=157
*	*	*	*	*	*	*^	*	*	*	*
2D	.	2f	2D	2A	2f	2ryy	2d\	2D	2A	2d	2f
*	*	*	*v	*v	*	*	*	*	*	*	*
2Cni	.	2g	2Cni	2g	2cni	2e\	2Cni	2c	2e	2g
=158	=158	=158	=158	=158	=158	=158	=158	=158	=158	=158
*	*	*	*	*	*	*	*^	*	*	*
2FF	.	2a	2FF	2a	2c	2f\	2F	2FF	2c	2f	2a
*	*	*	*	*	*	*	*v	*v	*	*	*
2BB-X	.	2f	2BB-X	2f	2B-X	2d\	2BB-X	2B-X	2d	2f
=159	=159	=159	=159	=159	=159	=159	=159	=159	=159	=159
2GG	-	2g	2GG	2g	2B-X	2d\	2GG	2B-X	2d	2g
2GG#X	7 5	2f	2GG#X	2f	2Bn	2d\	2GG#X	2B	2d	2f
=160	=160	=160	=160	=160	=160	=160	=160	=160	=160	=160
2AA	#	2e	2AA	2e	2A	2c#X\	2AA	2A	2c#X	2e
*	*	*	*^	*	*	*	*	*	*	*
2D	.	2f	2D	2A	2f	2ryy	2d\	2D	2A	2d	2f
*	*	*	*	*	*	*v	*v	*	*	*	*
=161	=161	=161	=161	=161	=161	=161	=161	=161	=161	=161
2BB	6	2d	2BB	2G	2d	2d	2BB	2G	2d	2d
2GG	7	2f	2GG	2G	2f	2B	2GG	2G	2B	2f
=162	=162	=162	=162	=162	=162	=162	=162	=162	=162	=162
2C	.	2e	2C	2G	2e	2c	2C	2G	2c	2e
2F	6	2d	2F	2A	2d	2d	2F	2A	2d	2d
=163	=163	=163	=163	=163	=163	=163	=163	=163	=163	=163
2D	.	2f	2D	2A	2f	2d	2D	2A	2d	2f
2G	.	2d	2G	2G	2d	2B	2G	2G	2B	2d
=164	=164	=164	=164	=164	=164	=164	=164	=164	=164	=164
2C	.	2c	2C	2E	2c	2G	2C	2E	2c	2c
2AA	#	2e	2AA	2A	2e	2c#X	2AA	2A	2c#X	2e
=165	=165	=165	=165	=165	=165	=165	=165	=165	=165	=165
2D	.	2f	2D	2A	2f	2d	2D	2A	2d	2f
2C	.	2g	2Cni	2cni	2g	2e	2C	2c	2e	2g
=166	=166	=166	=166	=166	=166	=166	=166	=166	=166	=166
2C#X	6	2a	2C#X	2A	2a	2e	2C#X	2A	2e	2a
[2D	.	2f	[2D	2A	2f	2d	[2D	2A	2d	2f
=167	=167	=167	=167	=167	=167	=167	=167	=167	=167	=167
4D]	-r6 4 2	2g	4D]	4B-X	2g	2.e	4D]	(4B-X	2.e	2g
4C#X	6 5	.	4C#X	4A	.	.	4C#X	4A)	.	.
2D	9	2f	2D	[2A	2f	.	2D	2A	.	2f
.	8	.	.	.	.	8dL	.	.	8dL	.
.	.	.	.	.	.	8cniJ	.	.	8cJ	.
=168	=168	=168	=168	=168	=168	=168	=168	=168	=168	=168
2E	4	2e	2E	4A]	2e	2Bni	2E	(4A	2B	2e
.	#	.	.	4G#X	.	.	.	4G#X)	.	.
2E	n	2e	2E	2Gn	2e	2B	2E	2G	2B	2e
*	*	*	*v	*v	*	*	*	*	*	*
=169	=169	=169	=169	=169	=169	=169	=169	=169	=169
*	*	*	*	*	*^	*	*	*	*
2C	.	2g	2C	2g	2c	2e\	2C	2c	2e	2g
2C#X	6	2a	2C#X	2a	2e	2a\	2C#X	2e	2a	2a
=170	=170	=170	=170	=170	=170	=170	=170	=170	=170	=170
2D	.	2a	2D	2a	2f	2a\	2D	2f	2a	2a
2BB	#6\	2b	2BB	2b	2d	2g#X\	2BB	2d	2g#X	2b
=171	=171	=171	=171	=171	=171	=171	=171	=171	=171	=171
2AA	.	2cc	2AA	2cc	2e	2a\	2AA	2e	2a	2cc
2D	.	2a	2D	2a	2d	2f\	2D	2d	2f	2a
=172	=172	=172	=172	=172	=172	=172	=172	=172	=172	=172
2AA	#	2a	2AA	2a	2c#X	2e\	2AA	2c#X	2e	2a
2F	6	2a	2F	2a	2d	2f\	2F	2d	2f	2a
=173	=173	=173	=173	=173	=173	=173	=173	=173	=173	=173
2BB	7 5	2a	2BB	2a	2d	2f\	2BB	2d	2f	2a
2C	.	2g	2Cni	2g	2e	2e/	2C	2e	2e	2g
=174	=174	=174	=174	=174	=174	=174	=174	=174	=174	=174
2F	.	2a	2F	2a	2c	2f\	2F	2c	2f	2a
4E	6	2cc	4E	2cc	2c	4g\	(4E	2c	(4g	2cc
4C	.	.	4C	.	.	4e\	4C)	.	4e)	.
=175	=175	=175	=175	=175	=175	=175	=175	=175	=175	=175
2BB	6	2g	2BB	2g	2d	2d/	2BB	2d	2d	2g
2GG	.	2g	2GG	2g	2B	2d\	2GG	2B	2d	2g
=176	=176	=176	=176	=176	=176	=176	=176	=176	=176	=176
*	*	*	*^	*	*	*	*	*	*	*
2C	.	2e	2C	2G	2e	2ryy	2c\	2C	2G	2c	2e
*	*	*	*v	*v	*	*	*	*	*	*	*
2A	.	2a	2A	2a	[2c	2e\	2A	[2c	2e	2a
=177	=177	=177	=177	=177	=177	=177	=177	=177	=177	=177
2F#X	5	2a	2F#X	2a	2c]	2d\	2F#X	2c]	2d	2a
2D	7 #	2a	2D	2a	2c	2f#X\	2D	2c	2f#X	2a
=178	=178	=178	=178	=178	=178	=178	=178	=178	=178	=178
2G	.	2g	2G	2g	2B	2d\	2G	2B	2g	2g
2E	.	2b	2E	2b	2e	2g\	2E	2e	2g	2b
=179	=179	=179	=179	=179	=179	=179	=179	=179	=179	=179
2C	.	2cc	2C	2cc	2e	2g\	2C	2e	2g	2cc
2C#X	6	2a	2C#X	2a	2e	4a\	2C#X	2e	(4a	2a
.	5	.	.	.	.	[4g\	.	.	[4g)	.
=180	=180	=180	=180	=180	=180	=180	=180	=180	=180	=180
2D	4	2a	2D	2a	2d	4g\]	2D	2d	(4g]	2a
.	3	.	.	.	.	4f\	.	.	4f)	.
2Cni	6	2a	2Cni	2a	2e	2e/	2Cni	2e	2e	2a
*	*	*	*	*	*v	*v	*	*	*	*
=181	=181	=181	=181	=181	=181	=181	=181	=181	=181
*	*	*	*^	*	*	*	*	*	*
2D	6 5	2a	2D	2B	2a	2f	2D	2B	2f	2a
2E	6	2g	2E	4c	2g	2e	2E	4c	2e	2g
.	-r5	.	.	4B-X	.	.	.	4B-X	.	.
=182	=182	=182	=182	=182	=182	=182	=182	=182	=182	=182
2F	5	2a	2F	2A	2a	4c	2F	2A	(4c	2a
.	6	.	.	.	.	4d	.	.	4d)	.
4E	6	2cc	4E	2G	2cc	4g	(4E	2G	(4g	2cc
4C	.	.	4C	.	.	4e	4C)	.	4e)	.
=183	=183	=183	=183	=183	=183	=183	=183	=183	=183	=183
*	*	*	*	*	*	*^	*	*	*	*
4BB	6	2g	4BB	4G	2g	4ryy	2d\	(4BB	(4G	2d	2g
*	*	*	*v	*v	*	*	*	*	*	*	*
4GG	.	.	4GG	.	4B	.	4GG)	4B)	.	.
*	*	*	*^	*	*	*	*	*	*	*
4AA	7	2g	4AA	4A	2g	4ryy	4c\	(4AA	(4A	(4c	2g
4BB	6	.	4BB	4G	.	4ryy	4d\	4BB)	4G)	4d)	.
=184	=184	=184	=184	=184	=184	=184	=184	=184	=184	=184	=184
2C	.	2e	2C	2G	2e	2ryy	2c\	2C	2G	2c	2e
*	*	*	*v	*v	*	*	*	*	*	*	*
2A	.	2a	2A	2a	[2c	2e\	2A	[2c	2e	2a
=185	=185	=185	=185	=185	=185	=185	=185	=185	=185	=185
2F#X	5	2a	2F#X	2a	2c]	2d\	2F#X	2c]	2d	2a
2D	7 #	2a	2D	2a	2c	2f#X\	2D	2c	2f#X	2a
=186	=186	=186	=186	=186	=186	=186	=186	=186	=186	=186
2G	.	2g	2G	2g	2B	2d\	2G	2B	2g	2g
2E	.	2b	2E	2b	2e	2g\	2E	2e	2g	2b
=187	=187	=187	=187	=187	=187	=187	=187	=187	=187	=187
2C	.	2cc	2C	2cc	2e	2g\	2C	2e	2g	2cc
2C#X	6	2a	2C#X	2a	2e	4a\	2C#X	2e	(4a	2a
.	5	.	.	.	.	[4g\	.	.	[4g)	.
=188	=188	=188	=188	=188	=188	=188	=188	=188	=188	=188
2D	4	2a	2D	2a	2d	4g\]	2D	2d	(4g]	2a
.	3	.	.	.	.	4f\	.	.	4f)	.
2Cni	6	2a	2Cni	2a	2e	2e/	2Cni	2e	2e	2a
*	*	*	*	*	*v	*v	*	*	*	*
=189	=189	=189	=189	=189	=189	=189	=189	=189	=189
*	*	*	*^	*	*	*	*	*	*
2D	6 5	2a	2D	2B	2a	2f	2D	2B	2f	2a
2E	6	2g	2E	4c	2g	2e	2E	4c	2e	2g
.	-r5	.	.	4B-X	.	.	.	4B-X	.	.
=190	=190	=190	=190	=190	=190	=190	=190	=190	=190	=190
2F	5	2a	2F	2A	2a	4c	2F	2A	(4c	2a
.	6	.	.	.	.	4d	.	.	4d)	.
4E	6	2cc	4E	2G	2cc	4g	(4E	2G	(4g	2cc
4C	.	.	4C	.	.	4e	4C)	.	4e)	.
=191	=191	=191	=191	=191	=191	=191	=191	=191	=191	=191
*	*	*	*	*	*	*^	*	*	*	*
4BB	6	2g	4BB	4G	2g	4ryy	2d\	(4BB	(4G	2d	2g
*	*	*	*v	*v	*	*	*	*	*	*	*
4GG	.	.	4GG	.	4B	.	4GG)	4B)	.	.
*	*	*	*^	*	*	*	*	*	*	*
4AA	7	2g	4AA	4A	2g	4ryy	4c\	(4AA	(4A	(4c	2g
4BB	6	.	4BB	4G	.	4ryy	4d\	4BB)	4G)	4d)	.
=192	=192	=192	=192	=192	=192	=192	=192	=192	=192	=192	=192
2C	.	2e	2C	2G	2e	2ryy	2c\	2C	2G	2c	2e
*	*	*	*v	*v	*	*	*	*	*	*	*
2A	.	2a	2A	2a	[2c	2e\	2A	[2c	2e	2a
=193	=193	=193	=193	=193	=193	=193	=193	=193	=193	=193
2F#X	5	2a	2F#X	2a	2c]	2d\	2F#X	2c]	2d	2a
2D	7 #	2a	2D	2a	2c	2f#X\	2D	2c	2f#X	2a
=194	=194	=194	=194	=194	=194	=194	=194	=194	=194	=194
2G	.	2g	2G	2g	2B	2d\	2G	2B	2g	2g
2E	.	2b	2E	2b	2e	2g\	2E	2e	2g	2b
=195	=195	=195	=195	=195	=195	=195	=195	=195	=195	=195
2C	.	2cc	2C	2cc	2e	2g\	2C	2e	2g	2cc
2C#X	6	2a	2C#X	2a	2e	4a\	2C#X	2e	(4a	2a
.	5	.	.	.	.	[4g\	.	.	[4g)	.
=196	=196	=196	=196	=196	=196	=196	=196	=196	=196	=196
2D	4	2a	2D	2a	2d	4g\]	2D	2d	(4g]	2a
.	3	.	.	.	.	4f\	.	.	4f)	.
2Cni	6	2a	2Cni	2a	2e	2e/	2Cni	2e	2e	2a
*	*	*	*	*	*v	*v	*	*	*	*
=197	=197	=197	=197	=197	=197	=197	=197	=197	=197
*	*	*	*^	*	*	*	*	*	*
2D	6 5	2a	2D	2B	2a	2f	2D	2B	2f	2a
2E	6	2g	2E	4c	2g	2e	2E	4c	2e	2g
.	-r5	.	.	4B-X	.	.	.	4B-X	.	.
=198	=198	=198	=198	=198	=198	=198	=198	=198	=198	=198
2F	5	2a	2F	2A	2a	4c	2F	2A	(4c	2a
.	6	.	.	.	.	4d	.	.	4d)	.
4E	6	2cc	4E	2G	2cc	4g	(4E	2G	(4g	2cc
4C	.	.	4C	.	.	4e	4C)	.	4e)	.
=199	=199	=199	=199	=199	=199	=199	=199	=199	=199	=199
*	*	*	*	*	*	*^	*	*	*	*
4BB	6	2g	4BB	4G	2g	4ryy	2d\	(4BB	(4G	2d	2g
*	*	*	*v	*v	*	*	*	*	*	*	*
4GG	.	.	4GG	.	4B	.	4GG)	4B)	.	.
*	*	*	*^	*	*	*	*	*	*	*
4AA	7	2g	4AA	4A	2g	4ryy	4c\	(4AA	(4A	(4c	2g
4BB	6	.	4BB	4G	.	4ryy	4d\	4BB)	4G)	4d)	.
=200	=200	=200	=200	=200	=200	=200	=200	=200	=200	=200	=200
2C	.	2e	2C	2G	2e	2ryy	2c\	2C	2G	2c	2e
*	*	*	*v	*v	*	*	*	*^	*	*	*
2FF	.	2f	2FF	2f	2A	2c\	2F	2FF	2A	2c	2f
=201	=201	=201	=201	=201	=201	=201	=201	=201	=201	=201	=201
2GG	.	2d	2GG	2d	2G	2B\	2G	2GG	2G	2B	2d
2DD	5	2f	2DD	2f	4A	[2d\	2D	2DD	(4A	[2d	2f
.	6	.	.	.	4B	.	.	.	4B)	.	.
=202	=202	=202	=202	=202	=202	=202	=202	=202	=202	=202	=202
2EE	7	2g	2EE	2g	2G	4d\]	2E	2EE	2G	(4d]	2g
.	6	.	.	.	.	2c\	.	.	.	4c)	.
2FF	5	2a	2FF	2a	4c	.	2F	2FF	(4c	(4c	2a
.	6	.	.	.	4A	4d\	.	.	4A)	4d)	.
=203	=203	=203	=203	=203	=203	=203	=203	=203	=203	=203	=203
2GG	6 -	2g	2GG	2g	2B-X	2e\	4G	2GG	2B-X	2e	2g
.	.	.	.	.	.	.	4GG	.	.	.	.
2GG#X	7 5	2f	2GG#X	2f	2Bn	2d\	2GG#X	2GG#X	2B	2d	2f
=204	=204	=204	=204	=204	=204	=204	=204	=204	=204	=204	=204
2AA	#	2e	2AA	2e	2A	2c#X\	2AA	2AA	2A	2c#X	2e
*	*	*	*	*	*	*	*v	*v	*	*	*
2AA	#	2e	2AA	2e	2A	2c#\	2AA	2A	2c#	2e
=205	=205	=205	=205	=205	=205	=205	=205	=205	=205	=205
2D	.	2f	2D	2f	2A	2d\	2D	2A	2d	2f
2C	.	2g	2Cni	2g	2cni	2e\	2C	2c	2e	2g
=206	=206	=206	=206	=206	=206	=206	=206	=206	=206	=206
*	*	*	*	*	*	*	*^	*	*	*
2FF	-7	2a	2FF	2a	2c	2e-X\	2F	2FF	2c	2e-X	2a
*	*	*	*	*	*	*	*v	*v	*	*	*
[2BB-X	.	2f	[2BB-X	2f	2B-X	2d\	[2BB-X	2B-X	2d	2f
=207	=207	=207	=207	=207	=207	=207	=207	=207	=207	=207
4BB-]	6	2g	4BB-]	2g	4G	4d\	(4BB-]	(4G	(4d	2g
2AA	7 #	.	2AA	.	2A	4c#X\	2AA)	2A)	4c#X)	.
.	6 4	2f	.	2f	.	2d\	.	.	2d	2f
4GG#X	7 5	.	4GG#X	.	4Bni	.	4GG#X	4Bi	.	.
=208	=208	=208	=208	=208	=208	=208	=208	=208	=208	=208
2AA	#	2e	2AA	2e	2A	2c#X\	2AA	2A	2c#X	2e
*	*	*	*^	*	*	*	*	*	*	*
2BBni	6	2gni	2BBni	2Gni	2gni	2ryy	2d\	2BBni	2G	2d	(2g
=209	=209	=209	=209	=209	=209	=209	=209	=209	=209	=209	=209
2C	.	2e	2Cni	2G	2e	2ryy	2cni\	2C	2G	[1cni	2e
*	*	*	*v	*v	*	*	*	*^	*	*	*
2AA	.	2c	2AA	2c	[2A	[2c\	2A	2AA	2A	.	2c
=210	=210	=210	=210	=210	=210	=210	=210	=210	=210	=210	=210
2FF	6 5	1d	2FF	1d	2A]	2c\]	2F	2FF	2A	2c]	1d)
2GG	.	.	2GG	.	4G	4B\	2G	2GG	4G	4B	.
.	.	.	.	.	[4B	[4d\	.	.	[4B	[4d	.
=211	=211	=211	=211	=211	=211	=211	=211	=211	=211	=211	=211
4GG#X	6 5	[1e	4GG#X	[1e	4B]	4d\]	4G#X	4GG#X	4B]	4d]	[1e
4EE	7 #	.	4EE	.	8AL	8c\L	4E	4EE	8AL	8cL	.
.	.	.	.	.	8G#XJ	8B\J	.	.	8G#XJ	8BJ	.
4AA	.	.	4AA	.	2A	2c\	4A	4AA	2A	2c	.
4C	6	.	4C	.	.	.	4c	4C	.	.	.
=212	=212	=212	=212	=212	=212	=212	=212	=212	=212	=212	=212
1EE	#	1e]	1EE	1e]	1G#X	1B\	1E	1EE	1G#X	1B	1e]
*	*	*	*	*v	*v	*v	*	*	*	*	*
*	*	*	*	*	*v	*v	*	*	*
==	==	==	==	==	==	==	==	==
*-	*-	*-	*-	*-	*-	*-	*-	*-
!!!system-decoration: {(s1,s2,s3,s4)}{(s5,s6)}{(s7,s8)}
!!!RDF**kern: i = editorial accidental
!!!RDF**kern: > = above
!!!RDF**kern: < = below
!!!AGN: chorale
!!!EED: Derek Remeš
!!!EED2: Victor Phan
!!!END: 2023/11/28
!!!ENC: Wolfgang Drescher
!!!EEV: 2023/12/10
!!!title: @{ONM}. @{OTL}
!!!verovio: mnumInterval 1